X:1
T:Sunshine
R:hornpipe
M:4/4
L:1/8
K:A
cd|(3eae(3cec (3AcAED|CEAc ecAc|(3ded(3cdc (3BcB(3ABA|GeFe E2cd|
(3eae(3cec (3AcAED|CEAc defg|(3agf(3edc (3fed(3cBA|(3GAB(3EFG A2:|
|:Bc|dBGB EGBc|dBGB d2fa|ec(3AcA EA(3cd^d|ec(3Ace a2ga|
fdBd (3fed(3cBA|(3GAB(3AGF E2cd|eafd cABG|Aaec A2:|
